Obsidian/places/16s/mail-messages-symbolic.svg

<svg height="16" width="16" xmlns="http://www.w3.org/2000/svg" xmlns:xlink="http://www.w3.org/1999/xlink"><linearGradient id="a" gradientUnits="userSpaceOnUse" x1="11.523069" x2="11.523069" y1=".030721" y2="14.54048"><stop offset="0"/><stop offset="1" stop-color="#363636"/></linearGradient><g fill-rule="evenodd"><path d="m6 2-5 5v8h14v-8l-5-5h-4zm-2.5 6 2.5625 2.78125 1.9375-1.78125 1.9375 1.78125 2.53125-2.78125.5.5-2.46875 2.71875 2.5 2.28125-.5.5-4.5-4-4.5 4-.5-.5 2.5-2.25-2.5-2.75.5-.5z" fill="#fff" opacity=".6"/><path d="m6 1-5 5v8h14v-8l-5-5h-4zm-2.5 6 2.5625 2.78125 1.9375-1.78125 1.9375 1.78125 2.53125-2.78125.5.5-2.46875 2.71875 2.5 2.28125-.5.5-4.5-4-4.5 4-.5-.5 2.5-2.25-2.5-2.75.5-.5z" fill="url(#a)" opacity=".7"/></g></svg>

<?xml version="1.0" encoding="UTF-8" standalone="no"?>
<!-- Created with Inkscape (http://www.inkscape.org/) -->
<svg
   xmlns:svg="http://www.w3.org/2000/svg"
   xmlns="http://www.w3.org/2000/svg"
   xmlns:xlink="http://www.w3.org/1999/xlink"
   version="1.0"
   width="16"
   height="16"
   id="svg3219">
  <defs
     id="defs3221">
    <linearGradient
       id="linearGradient3587-6-5">
      <stop
         id="stop3589-9-2"
         style="stop-color:#000000;stop-opacity:1"
         offset="0" />
      <stop
         id="stop3591-7-4"
         style="stop-color:#363636;stop-opacity:1"
         offset="1" />
    </linearGradient>
    <linearGradient
       x1="-2.4040222"
       y1="4.4573336"
       x2="-2.4040222"
       y2="18.967093"
       id="linearGradient2420"
       xlink:href="#linearGradient3587-6-5"
       gradientUnits="userSpaceOnUse"
       gradientTransform="translate(13.927091,-4.4266134)" />
  </defs>
  <path
     d="M 6,2 L 1,7 L 1,15 L 15,15 L 15,7 L 10,2 L 6,2 z M 3.5,8 L 6.0625,10.78125 L 8,9 L 9.9375,10.78125 L 12.46875,8 L 12.96875,8.5 L 10.5,11.21875 L 13,13.5 L 12.5,14 L 8,10 L 3.5,14 L 3,13.5 L 5.5,11.25 L 3,8.5 L 3.5,8 z"
     id="path3162"
     style="opacity:0.6;fill:#ffffff;fill-opacity:1;fill-rule:evenodd;stroke:none;stroke-width:1;stroke-linecap:butt;stroke-linejoin:miter;marker:none;marker-start:none;marker-mid:none;marker-end:none;stroke-miterlimit:4;stroke-dasharray:none;stroke-dashoffset:0;stroke-opacity:1;visibility:visible;display:inline;overflow:visible;enable-background:accumulate" />
  <path
     d="M 6,1 L 1,6 L 1,14 L 15,14 L 15,6 L 10,1 L 6,1 z M 3.5,7 L 6.0625,9.78125 L 8,8 L 9.9375,9.78125 L 12.46875,7 L 12.96875,7.5 L 10.5,10.21875 L 13,12.5 L 12.5,13 L 8,9 L 3.5,13 L 3,12.5 L 5.5,10.25 L 3,7.5 L 3.5,7 z"
     id="path3883"
     style="opacity:0.7;fill:url(#linearGradient2420);fill-opacity:1;fill-rule:evenodd;stroke:none;stroke-width:1;stroke-linecap:butt;stroke-linejoin:miter;marker:none;marker-start:none;marker-mid:none;marker-end:none;stroke-miterlimit:4;stroke-dasharray:none;stroke-dashoffset:0;stroke-opacity:1;visibility:visible;display:inline;overflow:visible;enable-background:accumulate" />
</svg>
